X:055
U: ~ = !turn!
%%topmargin 3cm
T:Donegal Reel
B:Traditional Irish Fiddle Tunes. Randy Miller and Jack Perron.
Z:Transcribed by Ralph Palmer
S:Paddy Cronin
R:Reel
L:1/8
M:C|
K:D
D2 DE {/G}FEFA | dAFA BF (3.F.F.F | E2 EF GFGA | BFAF EGFE |
D2 DE ((3.F.E.D) FA | dAFA dfag | fdec dBAG | ((3FGF) ((3EFE) DA,B,C |
D2 DE FEFA | dAFA BFAF | (3.E.E.E EF GFGA | BFAF EGFE |
DA, ~A,2 DEFA | ((3dcB) ((3cBA) Bcde | fded cABG | ((3FGF) ((3EFE) A2 ((3ABc) ||
|: defg afdf | afdf a2 gf | edef gfed | cdef gfge |
defg afdf | afdf bfag | fded cABG | ((3FGF) ((3EFE) D2 ((3ABc) :|]
